static/TimeTable.svg

<svg width="22" height="17" viewBox="0 0 22 17" fill="none" xmlns="http://www.w3.org/2000/svg">
<path d="M19.0928 1.06323V1.58025C19.0928 2.96926 18.0607 4.16064 16.7039 4.26086C15.1911 4.37325 13.9297 3.15283 13.9297 1.6327V1.06417C13.9297 0.756954 13.6857 0.508749 13.3857 0.508749H8.64735C8.3391 0.508749 8.08865 0.764447 8.08865 1.07915V1.58118C8.08865 2.97019 7.05659 4.16158 5.69976 4.26179C4.18698 4.37419 2.92556 3.15377 2.92556 1.63363V1.07915C2.92556 0.764447 2.67512 0.508749 2.36687 0.508749H1.10087C0.49264 0.508749 0 1.01172 0 1.6327V15.8759C0 16.4969 0.49264 16.9999 1.10087 16.9999H20.8991C21.5074 16.9999 22 16.4969 22 15.8759V1.63176C22 1.01078 21.5074 0.507812 20.8991 0.507812H19.6377C19.3368 0.507812 19.0937 0.756954 19.0937 1.06323H19.0928ZM10.2748 12.5088H4.42825C4.05946 12.5088 3.73012 12.2418 3.67783 11.869C3.61269 11.4045 3.96313 11.0064 4.40532 11.0064H10.2519C10.6207 11.0064 10.95 11.2733 11.0023 11.6461C11.0674 12.1107 10.717 12.5088 10.2748 12.5088ZM18.3506 8.00266C18.3506 8.41759 18.0213 8.75383 17.6149 8.75383H4.40441C3.998 8.75383 3.66865 8.41759 3.66865 8.00266C3.66865 7.58774 3.998 7.25149 4.40441 7.25149H17.6149C18.0213 7.25149 18.3506 7.58774 18.3506 8.00266Z" fill="#BBC7D3"/>
</svg>

<svg xmlns="http://www.w3.org/2000/svg" width="22" height="17" fill="none"><path fill="#BBC7D3" d="M19.093 1.063v.517c0 1.39-1.032 2.58-2.39 2.68-1.512.113-2.773-1.107-2.773-2.627v-.569a.55.55 0 0 0-.544-.555H8.647a.565.565 0 0 0-.558.57v.502c0 1.39-1.032 2.58-2.39 2.68-1.512.113-2.773-1.107-2.773-2.627v-.555c0-.315-.25-.57-.56-.57H1.102C.493.509 0 1.012 0 1.633v14.243C0 16.496.493 17 1.1 17h19.8c.607 0 1.1-.503 1.1-1.124V1.632c0-.621-.493-1.124-1.1-1.124h-1.262a.55.55 0 0 0-.544.555h-.001ZM10.275 12.51H4.428a.755.755 0 0 1-.75-.64.746.746 0 0 1 .727-.863h5.847c.369 0 .698.267.75.64a.746.746 0 0 1-.727.863Zm8.076-4.506c0 .415-.33.75-.736.75H4.405a.744.744 0 0 1-.736-.75c0-.415.329-.752.735-.752h13.21c.407 0 .737.337.737.752Z"/></svg>
